X: 1323
T: The Leitrim Thrush
R:Reel
N:Collected by McFadden
B:O'Neill's 1323
Z:Transcribed by Trish O'Neil
M:C|
L:1/8
K:C
A3B cAGB|AcAG EFGc|AGAB cdef|geag ecdB|
AGAB cAGB|AcAG EB,Cc|AGAB cdef|(3gfe ag "H"ecc2||
(3gag ec gcec|gcec Bcd2|gcec gcec|gagf ecc2|
(3gag ec gcec|gcec Bcd2|gage (3ded cA|GAag "D.C."ecdc|]


